assets/images/discover.svg

<svg height="48" viewBox="0 0 48 48" width="48" xmlns="http://www.w3.org/2000/svg"><path d="m45 35c0 2.199219-1.800781 4-4 4h-34c-2.199219 0-4-1.800781-4-4v-22c0-2.199219 1.800781-4 4-4h34c2.199219 0 4 1.800781 4 4z" fill="#e1e7ea"/><path d="m45 35c0 2.199219-1.800781 4-4 4h-25s23.601563-3.800781 29-15zm-23-11c0 1.699219 1.300781 3 3 3s3-1.300781 3-3-1.300781-3-3-3-3 1.300781-3 3z" fill="#ff6d00"/><path d="m11.199219 21h1.101562v6h-1.101562zm6 3c0 1.699219 1.300781 3 3 3 .5 0 .902344-.101562 1.402344-.300781v-1.300781c-.402344.402343-.800782.601562-1.402344.601562-1.097656 0-1.898438-.800781-1.898438-2 0-1.101562.800782-2 1.898438-2 .5 0 .902344.199219 1.402344.601563v-1.300782c-.5-.199218-.902344-.402343-1.402344-.402343-1.699219.101562-3 1.5-3 3.101562zm13.402344.898438-1.601563-3.898438h-1.199219l2.5 6h.597657l2.5-6h-1.199219zm3.296875 2.101562h3.203125v-1h-2.101563v-1.601562h2v-1h-2v-1.398438h2.101563v-1h-3.203125zm7.601562-4.199219c0-1.101562-.699219-1.800781-2-1.800781h-1.699219v6h1.097657v-2.398437h.101562l1.601563 2.398437h1.398437l-1.800781-2.5c.800781-.199219 1.300781-.800781 1.300781-1.699219zm-2.300781 1h-.300781v-1.800781h.300781c.699219 0 1.101562.300781 1.101562.898438 0 .5-.300781.902343-1.101562.902343zm-31.5-2.800781h-1.699219v6h1.601563c2.5 0 3.097656-2.101562 3.097656-3 .101562-1.800781-1.199219-3-3-3zm-.300781 5h-.296875v-4h.398437c1.5 0 2.101563 1 2.101563 2 0 .398438-.101563 2-2.203125 2zm7.902343-2.699219c-.699218-.300781-.902343-.402343-.902343-.699218 0-.402344.402343-.601563.800781-.601563.300781 0 .601562.101563.902344.5l.597656-.800781c-.5-.5-1-.699219-1.699219-.699219-1 0-1.800781.699219-1.800781 1.699219 0 .800781.402344 1.199219 1.402344 1.601562.597656.199219 1.097656.398438 1.097656.898438s-.398438.800781-.898438.800781-1-.300781-1.199218-.800781l-.703125.699219c.5.800781 1.101562 1.101562 2 1.101562 1.203125 0 2-.800781 2-1.898437 0-.902344-.398438-1.300782-1.597657-1.800782z"/></svg>

<svg xmlns="http://www.w3.org/2000/svg" width="42" height="30" viewBox="0 0 42 30"><g transform="translate(-3 -9)"><path d="M45,35a4.013,4.013,0,0,1-4,4H7a4.013,4.013,0,0,1-4-4V13A4.013,4.013,0,0,1,7,9H41a4.013,4.013,0,0,1,4,4Z" fill="#e1e7ea"/><path d="M45,35a4.013,4.013,0,0,1-4,4H16s23.6-3.8,29-15ZM22,24a3,3,0,1,0,3-3A2.947,2.947,0,0,0,22,24Z" fill="#ff6d00"/><path d="M11.2,21h1.1v6H11.2Zm6,3a2.947,2.947,0,0,0,3,3,3.555,3.555,0,0,0,1.4-.3V25.4a1.815,1.815,0,0,1-1.4.6,1.866,1.866,0,0,1-1.9-2,1.922,1.922,0,0,1,1.9-2,2.156,2.156,0,0,1,1.4.6V21.3a3.738,3.738,0,0,0-1.4-.4A3.165,3.165,0,0,0,17.2,24Zm13.4.9L29,21H27.8l2.5,6h.6l2.5-6H32.2ZM33.9,27h3.2V26H35V24.4h2v-1H35V22h2.1V21H33.9Zm7.6-4.2c0-1.1-.7-1.8-2-1.8H37.8v6h1.1V24.6H39L40.6,27H42l-1.8-2.5A1.637,1.637,0,0,0,41.5,22.8Zm-2.3,1h-.3V22h.3c.7,0,1.1.3,1.1.9C40.3,23.4,40,23.8,39.2,23.8ZM7.7,21H6v6H7.6a2.971,2.971,0,0,0,3.1-3A2.782,2.782,0,0,0,7.7,21Zm-.3,5H7.1V22h.4a2.006,2.006,0,1,1-.1,4Zm7.9-2.7c-.7-.3-.9-.4-.9-.7,0-.4.4-.6.8-.6a1.066,1.066,0,0,1,.9.5l.6-.8A2.192,2.192,0,0,0,15,21a1.71,1.71,0,0,0-1.8,1.7c0,.8.4,1.2,1.4,1.6.6.2,1.1.4,1.1.9a.816.816,0,0,1-.9.8,1.3,1.3,0,0,1-1.2-.8l-.7.7a2.112,2.112,0,0,0,2,1.1,1.864,1.864,0,0,0,2-1.9C16.9,24.2,16.5,23.8,15.3,23.3Z"/></g></svg>
